src/pos-icons/arrow-top-right.svg

<svg height="24" viewBox="0 0 24 24" width="24" xmlns="http://www.w3.org/2000/svg"><path d="m5 17.59 10.59-10.59h-6.59v-2h10v10h-2v-6.59l-10.59 10.59z"/></svg>

<?xml version="1.0" encoding="UTF-8"?><!DOCTYPE svg PUBLIC "-//W3C//DTD SVG 1.1//EN" "http://www.w3.org/Graphics/SVG/1.1/DTD/svg11.dtd"><svg xmlns="http://www.w3.org/2000/svg" xmlns:xlink="http://www.w3.org/1999/xlink" version="1.1" id="mdi-arrow-top-right" width="24" height="24" viewBox="0 0 24 24"><path d="M5,17.59L15.59,7H9V5H19V15H17V8.41L6.41,19L5,17.59Z" /></svg>
